packages/icons/raw/imported/TimeCalendarAdd.svg

<svg width="32" height="32" viewBox="0 0 32 32" fill="none" xmlns="http://www.w3.org/2000/svg">
<path d="M6.5 10.3846H6H6.5ZM22.5769 25V24.5V25ZM9.42308 25V25.5V25ZM25.5 10.3846H25H25.5ZM25.5 22.0769H26H25.5ZM22.5769 7.46157L22.5769 7.96157L22.5769 7.46157ZM9.42308 7.46154L9.42308 6.96154L9.42308 7.46154ZM25.5 13.0769C25.7761 13.0769 26 12.8531 26 12.5769C26 12.3008 25.7761 12.0769 25.5 12.0769V13.0769ZM7.23077 12.0769C6.95463 12.0769 6.73077 12.3008 6.73077 12.5769C6.73077 12.8531 6.95463 13.0769 7.23077 13.0769V12.0769ZM11.1154 8.92308C11.1154 9.19922 11.3392 9.42308 11.6154 9.42308C11.8915 9.42308 12.1154 9.19922 12.1154 8.92308H11.1154ZM12.1154 6C12.1154 5.72386 11.8915 5.5 11.6154 5.5C11.3392 5.5 11.1154 5.72386 11.1154 6H12.1154ZM19.8846 8.92308C19.8846 9.19922 20.1085 9.42308 20.3846 9.42308C20.6608 9.42308 20.8846 9.19922 20.8846 8.92308L19.8846 8.92308ZM20.8846 6C20.8846 5.72386 20.6608 5.5 20.3846 5.5C20.1085 5.5 19.8846 5.72386 19.8846 6L20.8846 6ZM16.5 15.5C16.5 15.2239 16.2761 15 16 15C15.7239 15 15.5 15.2239 15.5 15.5H16.5ZM15.5 21.3462C15.5 21.6223 15.7239 21.8462 16 21.8462C16.2761 21.8462 16.5 21.6223 16.5 21.3462H15.5ZM13.0769 17.923C12.8008 17.923 12.5769 18.1469 12.5769 18.423C12.5769 18.6992 12.8008 18.923 13.0769 18.923V17.923ZM18.9231 18.923C19.1992 18.923 19.4231 18.6992 19.4231 18.423C19.4231 18.1469 19.1992 17.923 18.9231 17.923V18.923ZM6 10.3846L6 22.0769H7L7 10.3846H6ZM22.5769 24.5L9.42308 24.5V25.5L22.5769 25.5V24.5ZM25 10.3846V22.0769H26V10.3846H25ZM22.5769 6.96157L9.42308 6.96154L9.42308 7.96154L22.5769 7.96157L22.5769 6.96157ZM26 10.3846C26 8.49414 24.4674 6.96157 22.5769 6.96157L22.5769 7.96157C23.9152 7.96157 25 9.04642 25 10.3846H26ZM7 10.3846C7 9.04639 8.08485 7.96154 9.42308 7.96154L9.42308 6.96154C7.53257 6.96154 6 8.49411 6 10.3846H7ZM6 22.0769C6 23.9674 7.53256 25.5 9.42308 25.5V24.5C8.08485 24.5 7 23.4152 7 22.0769H6ZM22.5769 25.5C24.4674 25.5 26 23.9674 26 22.0769H25C25 23.4151 23.9151 24.5 22.5769 24.5V25.5ZM25.5 12.0769L7.23077 12.0769V13.0769L25.5 13.0769V12.0769ZM12.1154 8.92308V6H11.1154V8.92308H12.1154ZM20.8846 8.92308L20.8846 6L19.8846 6L19.8846 8.92308L20.8846 8.92308ZM15.5 15.5L15.5 18.423H16.5L16.5 15.5H15.5ZM15.5 18.423L15.5 21.3462H16.5L16.5 18.423H15.5ZM13.0769 18.923L16 18.923V17.923L13.0769 17.923V18.923ZM16 18.923H18.9231V17.923H16V18.923Z" fill="black"/>
</svg>

<svg width="32" height="32" fill="none" xmlns="http://www.w3.org/2000/svg"><path d="M6.5 10.385H6h.5ZM22.577 25v-.5.5ZM9.423 25v.5-.5ZM25.5 10.385H25h.5Zm0 11.692h.5-.5ZM22.577 7.462v.5-.5Zm-13.154 0v-.5.5ZM25.5 13.077a.5.5 0 1 0 0-1v1Zm-18.27-1a.5.5 0 0 0 0 1v-1Zm3.885-3.154a.5.5 0 1 0 1 0h-1Zm1-2.923a.5.5 0 0 0-1 0h1Zm7.77 2.923a.5.5 0 0 0 1 0h-1Zm1-2.923a.5.5 0 1 0-1 0h1ZM16.5 15.5a.5.5 0 0 0-1 0h1Zm-1 5.846a.5.5 0 0 0 1 0h-1Zm-2.423-3.423a.5.5 0 0 0 0 1v-1Zm5.846 1a.5.5 0 1 0 0-1v1ZM6 10.385v11.692h1V10.385H6ZM22.577 24.5H9.423v1h13.154v-1ZM25 10.385v11.692h1V10.385h-1Zm-2.423-3.423H9.423v1h13.154v-1ZM26 10.385a3.423 3.423 0 0 0-3.423-3.423v1A2.423 2.423 0 0 1 25 10.385h1Zm-19 0a2.423 2.423 0 0 1 2.423-2.423v-1A3.423 3.423 0 0 0 6 10.385h1ZM6 22.077A3.423 3.423 0 0 0 9.423 25.5v-1A2.423 2.423 0 0 1 7 22.077H6ZM22.577 25.5A3.423 3.423 0 0 0 26 22.077h-1a2.423 2.423 0 0 1-2.423 2.423v1ZM25.5 12.077H7.23v1H25.5v-1ZM12.115 8.923V6h-1v2.923h1Zm8.77 0V6h-1v2.923h1ZM15.5 15.5v2.923h1V15.5h-1Zm0 2.923v2.923h1v-2.923h-1Zm-2.423.5H16v-1h-2.923v1Zm2.923 0h2.923v-1H16v1Z" fill="#000"/></svg>
